X:235
T: ICH WEISS NICHT BIN ICH REICH ODER ARM
N: E1374A
O: Europa, Mitteleuropa, Deutschland, Hessen, Kreis Wetzlar
R: Staende -, Soldaten -, Kriegs - Lied
M: 4/4
L: 1/8
K: G
D2 | G2B2B2AG | A2ABc2
BA | B2d2d2cB | B2A2z2
AB | c2e2e2dc | B2B2d2
cB | AAAAd2FF | A2G2z2
AB | c2e2e2dc | B2B2d2
cB | AAAAd2FF | A2G2z2

@@@ Tune index: 4919
